packages/axiom-materials/src/icon_svgs/vk.svg

<svg height="16" viewBox="0 0 16 16" width="16" xmlns="http://www.w3.org/2000/svg"><g fill="none" fill-rule="evenodd"><path d="m0 7.66666667c0-3.6141 0-5.42115334 1.12275667-6.54391 1.12275666-1.12275667 2.92981-1.12275667 6.54391-1.12275667h.66666666c3.61409997 0 5.42116667 0 6.54389997 1.12275667 1.1227667 1.12275666 1.1227667 2.92981 1.1227667 6.54391v.66666666c0 3.61409997 0 5.42116667-1.1227667 6.54389997-1.1227333 1.1227667-2.9298 1.1227667-6.54389997 1.1227667h-.66666666c-3.6141 0-5.42115334 0-6.54391-1.1227667-1.12275667-1.1227333-1.12275667-2.9298-1.12275667-6.54389997z" fill="#2787f5" fill-rule="nonzero"/><path d="m4.33363333 5h-1.16693333c-.33341333 0-.4001.15693333-.4001.32993333 0 .30903334.39562 1.84166667 1.84206667 3.8687.9643 1.38429997 2.3229 2.13469997 3.5592 2.13469997.74176666 0 .83353333-.1666666.83353333-.4537333v-1.04626667c0-.33333333.07026667-.39986666.30513333-.39986666.1731 0 .4698.08653333 1.16213337.75396663.7912333.7910334.9216666 1.1459 1.3667 1.1459h1.1669333c.3334333 0 .5001333-.1666666.4039667-.4955666-.1052334-.3278-.483-.8034334-.9842667-1.36720003-.272-.32136667-.6799667-.66743334-.8036-.8405-.1730667-.22246667-.1236333-.32136667 0-.5191 0 0 1.4217333-2.00233334 1.5701-2.6821.0741667-.24723334 0-.42886667-.3529-.42886667h-1.1669333c-.2967 0-.4335.15693333-.5077.32993333 0 0-.5934 1.44613334-1.4340667 2.3855-.272.2719-.39563333.35843334-.544.35843334-.07416667 0-.18153333-.08653334-.18153333-.3337v-2.3113c0-.29666667-.0861-.42886667-.3334-.42886667h-1.83376667c-.1854 0-.29693333.13766667-.29693333.26816667 0 .2812.42033333.34606666.46366666 1.1371v1.71806666c0 .37666667-.06806666.44496667-.2164.44496667-.3956 0-1.3579-1.4526-1.92863333-3.11473333-.11183333-.32306667-.22403333-.45356667-.52226667-.45356667z" fill="#fff"/></g></svg>

<svg
    xmlns="http://www.w3.org/2000/svg" width="16" height="16" viewBox="0 0 16 16">
    <g fill="none" fill-rule="evenodd">
        <path fill="#2787F5" fill-rule="nonzero" d="M-1.18423789e-15,7.66666667 C-1.18423789e-15,4.05256667 -1.18423789e-15,2.24551333 1.12275667,1.12275667 C2.24551333,0 4.05256667,0 7.66666667,0 L8.33333333,0 C11.9474333,0 13.7545,0 14.8772333,1.12275667 C16,2.24551333 16,4.05256667 16,7.66666667 L16,8.33333333 C16,11.9474333 16,13.7545 14.8772333,14.8772333 C13.7545,16 11.9474333,16 8.33333333,16 L7.66666667,16 C4.05256667,16 2.24551333,16 1.12275667,14.8772333 C-1.18423789e-15,13.7545 -1.18423789e-15,11.9474333 -1.18423789e-15,8.33333333 L-1.18423789e-15,7.66666667 Z"/>
        <path fill="#FFF" d="M4.33363333,5 L3.1667,5 C2.83328667,5 2.7666,5.15693333 2.7666,5.32993333 C2.7666,5.63896667 3.16222,7.1716 4.60866667,9.19863333 C5.57296667,10.5829333 6.93156667,11.3333333 8.16786667,11.3333333 C8.90963333,11.3333333 9.0014,11.1666667 9.0014,10.8796 L9.0014,9.83333333 C9.0014,9.5 9.07166667,9.43346667 9.30653333,9.43346667 C9.47963333,9.43346667 9.77633333,9.52 10.4686667,10.1874333 C11.2599,10.9784667 11.3903333,11.3333333 11.8353667,11.3333333 L13.0023,11.3333333 C13.3357333,11.3333333 13.5024333,11.1666667 13.4062667,10.8377667 C13.3010333,10.5099667 12.9232667,10.0343333 12.422,9.47056667 C12.15,9.1492 11.7420333,8.80313333 11.6184,8.63006667 C11.4453333,8.4076 11.4947667,8.3087 11.6184,8.11096667 C11.6184,8.11096667 13.0401333,6.10863333 13.1885,5.42886667 C13.2626667,5.18163333 13.1885,5 12.8356,5 L11.6686667,5 C11.3719667,5 11.2351667,5.15693333 11.1609667,5.32993333 C11.1609667,5.32993333 10.5675667,6.77606667 9.7269,7.71543333 C9.4549,7.98733333 9.33126667,8.07386667 9.1829,8.07386667 C9.10873333,8.07386667 9.00136667,7.98733333 9.00136667,7.74016667 L9.00136667,5.42886667 C9.00136667,5.1322 8.91526667,5 8.66796667,5 L6.8342,5 C6.6488,5 6.53726667,5.13766667 6.53726667,5.26816667 C6.53726667,5.54936667 6.9576,5.61423333 7.00093333,6.40526667 L7.00093333,8.12333333 C7.00093333,8.5 6.93286667,8.5683 6.78453333,8.5683 C6.38893333,8.5683 5.42663333,7.1157 4.8559,5.45356667 C4.74406667,5.1305 4.63186667,5 4.33363333,5 L4.33363333,5 Z"/>
    </g>
</svg>
